X:24
T:Miss Mary Le Blance's reel
M:2/4
L:1/16
S:Ron Coxall?
B:Blackburne tunes
Z:incomplete
K:A
f | efe2 c2A2 | efe2 c2A2 | efe2 c2A2 | d2B2B2f2 | efe2 c2A2 | efe2 c2A2 | d2f2e2d2 | c2A2 A2 :|
a2A2e2A2 | f2A2e2A2 | a2A2e2A2 | d2f2B2g2 | a2A2e2A2 | f2A2e2A2 | d2f2e2d2 | c2e2 A4 :|
E3A2 ABA2 | F3A ABA2 | E3A2 ABA2 | d2B2B2c2 | E3A2 ABA2 | F3A ABA2 | E2d2c2B2 | c2A2 :|
a2g2f2e2 | d2c2B2A2 | G2A2B2c2 | d2B2 B4 | a2g2f2e2 | d2c2B2A2 | E2d2c2B2 | c2A2 :|
"plus drone  on A" | C2E2 A4 | C2E2 A4 | C2E2 A4 | E4 | A4 c4 | d4 c4 |]
